X:1
T:Babbit's -- Hornpipe
R:hornpipe
B:Cole's 1000 Fiddle Tunes
M:2/4
L:1/16
K:D
uA2|dcdA Bcdf|gfed cBAG|FAdf gfed|c"4"edB .A2(Bc)|
dA"0"eA fAgA|gfed dcBA|dfeg faeg|f2d2d2:|
|:(ufg)|agfe defg|bagf "0"e2("4"ed)|\
cA"0"eA fAgA|"4"edcB A2(Bc)|
dA"0"eA fAgA|afdA dcBA|dfeg faeg|f2d2d2:|
